public/svg/usecases/slider/stable-payment.svg

<svg width="32" height="32" viewBox="0 0 32 32" fill="none" xmlns="http://www.w3.org/2000/svg">
<g clip-path="url(#clip0_225_2305)">
<path opacity="0.15" d="M27.6407 15.285C30.1861 14.3642 32.0013 11.937 32.0013 9.09189C32.0013 5.45116 29.0309 2.50208 25.3686 2.50208C23.0132 2.50208 20.9462 3.7199 19.7695 5.55724C20.7625 5.89882 23.152 6.86629 25.1188 9.29981C27.0812 11.727 27.519 14.2496 27.6407 15.285Z" fill="#3B82F6"/>
<path d="M15.5631 24.0856C15.3154 24.0856 15.0656 24.0856 14.8179 24.0856C14.5979 24.0856 14.5061 24.0028 14.5018 23.7801C14.4976 23.4427 14.4976 23.1033 14.5018 22.7659C14.5018 22.6811 14.4762 22.6492 14.3929 22.628C13.2099 22.3331 12.2041 21.739 11.3862 20.8373C11.3371 20.7822 11.2837 20.7313 11.2389 20.6761C11.098 20.5 11.1001 20.3812 11.2624 20.2199C11.4738 20.0099 11.6937 19.8084 11.9094 19.6026C12.1294 19.3946 12.3493 19.1888 12.5693 18.9809C12.8191 18.7454 12.9451 18.7412 13.2099 18.9618C13.5366 19.2334 13.8527 19.5219 14.2221 19.7426C14.8072 20.0905 15.4265 20.2603 16.1098 20.1245C16.6607 20.0141 16.9618 19.6704 16.9725 19.1443C16.9768 18.947 16.8999 18.79 16.7611 18.6563C16.4792 18.3869 16.1354 18.2235 15.7745 18.0983C15.0442 17.8437 14.316 17.587 13.6391 17.2115C13.0284 16.8741 12.4774 16.4668 12.0995 15.8706C11.1065 14.3112 11.6767 12.3614 13.3551 11.553C13.6711 11.4003 14 11.2836 14.3438 11.2178C14.4783 11.1924 14.5104 11.1372 14.5061 11.0099C14.4954 10.7235 14.5018 10.4349 14.5061 10.1464C14.5082 9.89817 14.6214 9.78784 14.8713 9.78784C15.3261 9.78784 15.7831 9.78784 16.2379 9.78784C16.5134 9.78784 16.6565 9.93211 16.6565 10.1994C16.6565 10.4646 16.6629 10.7299 16.6543 10.9929C16.6501 11.1054 16.6821 11.1478 16.7974 11.1712C17.7583 11.36 18.5997 11.7907 19.3215 12.4484C19.6909 12.7836 19.6909 12.9533 19.3492 13.314C18.9884 13.6917 18.6317 14.0736 18.2709 14.4512C18.0594 14.674 17.9142 14.6846 17.6751 14.4915C17.4017 14.2687 17.1327 14.0396 16.8209 13.8678C16.3191 13.5898 15.7938 13.5071 15.2343 13.6492C15.104 13.6832 14.9802 13.732 14.8713 13.8105C14.5296 14.0566 14.4847 14.5276 14.7794 14.8289C14.9695 15.0241 15.2108 15.1407 15.4628 15.232C16.0201 15.4335 16.5839 15.6181 17.1412 15.8218C17.7648 16.0509 18.3734 16.3076 18.9051 16.715C19.614 17.2581 19.9899 17.9689 20.039 18.86C20.1308 20.534 19.14 21.7369 17.8459 22.314C17.5085 22.4646 17.1604 22.5792 16.7953 22.645C16.6928 22.6641 16.6501 22.698 16.6543 22.8105C16.6629 23.116 16.6586 23.4215 16.6565 23.7291C16.6565 23.9943 16.5625 24.0856 16.2999 24.0856C16.0564 24.0856 15.813 24.0856 15.5674 24.0856H15.5631Z" fill="#3B82F6"/>
<path d="M27.2264 17.0417C27.22 19.4879 26.4598 21.8769 25.0397 23.8755C23.6602 25.8168 21.67 27.3338 19.4214 28.1464C17.1728 28.9589 14.4864 29.0926 12.0841 28.4179C9.76071 27.7666 7.67867 26.4002 6.13903 24.5544C4.59298 22.7001 3.64698 20.3663 3.46334 17.9667C3.27969 15.5671 3.85625 13.0424 5.13538 10.9356C6.37819 8.89246 8.23815 7.25456 10.4227 6.26587C12.6777 5.24536 15.2658 4.96319 17.6917 5.45541C20.1175 5.94763 22.2359 7.12938 23.9079 8.8564C25.5928 10.5983 26.7053 12.8366 27.0833 15.2213C27.1794 15.8239 27.22 16.4328 27.2221 17.0417C27.2221 17.4512 27.8649 17.4512 27.8627 17.0417C27.8542 14.4703 27.0555 11.9264 25.5479 9.83023C24.0403 7.73405 22.0031 6.20434 19.6221 5.33659C17.2411 4.46884 14.4266 4.34579 11.9111 5.05229C9.39555 5.7588 7.26867 7.16757 5.66283 9.10675C4.05698 11.0459 3.02771 13.524 2.82484 16.0806C2.62198 18.6372 3.24125 21.2638 4.5823 23.4703C5.92335 25.6768 7.83883 27.3507 10.1323 28.384C12.5346 29.4639 15.2424 29.7673 17.8284 29.2517C20.4144 28.7362 22.6331 27.478 24.3863 25.6534C26.1373 23.8331 27.3203 21.4886 27.709 18.9957C27.8093 18.3486 27.8627 17.6973 27.8649 17.0417C27.8649 16.6322 27.2264 16.6322 27.2242 17.0417H27.2264Z" fill="#181D27"/>
<path d="M14.8384 4.58557C13.7686 4.58557 12.7072 4.57285 11.6438 4.72985C10.181 4.94625 8.7567 5.42999 7.46263 6.14286C4.89585 7.55587 2.88855 9.85997 1.82938 12.5757C0.733901 15.3847 0.721089 18.5926 1.79094 21.4102C2.82662 24.1365 4.8147 26.4576 7.36867 27.8918C8.66488 28.6195 10.0956 29.1202 11.5691 29.3451C12.6859 29.517 13.8027 29.5 14.9302 29.5H15.3253C15.7374 29.5 15.7374 28.8635 15.3253 28.8635C14.5053 28.8635 13.681 28.889 12.8631 28.8444C11.4324 28.768 10.0059 28.4307 8.69905 27.8472C6.13653 26.7037 4.03527 24.6775 2.80954 22.1655C1.5838 19.6535 1.30193 16.5474 2.09417 13.785C2.88641 11.0226 4.6097 8.73975 6.94586 7.19731C8.11607 6.42504 9.41228 5.8628 10.779 5.54031C11.9662 5.26026 13.1557 5.22207 14.3686 5.22207H14.8363C15.2484 5.22207 15.2484 4.58557 14.8363 4.58557H14.8384Z" fill="#181D27"/>
</g>
<defs>
<clipPath id="clip0_225_2305">
<rect width="31" height="27" fill="white" transform="translate(1 2.5)"/>
</clipPath>
</defs>
</svg>

<svg xmlns="http://www.w3.org/2000/svg" width="32" height="32" fill="none" viewBox="0 0 32 32"><g clip-path="url(#a)"><path fill="#3b82f6" d="M27.64 15.285c2.546-.92 4.361-3.348 4.361-6.193 0-3.64-2.97-6.59-6.632-6.59a6.64 6.64 0 0 0-5.6 3.055A11.9 11.9 0 0 1 25.12 9.3a11.76 11.76 0 0 1 2.522 5.985" opacity=".15"/><path fill="#3b82f6" d="M15.563 24.086h-.745c-.22 0-.312-.083-.316-.306a41 41 0 0 1 0-1.014c0-.085-.026-.117-.11-.138a5.9 5.9 0 0 1-3.006-1.79c-.049-.056-.102-.107-.147-.162-.141-.176-.139-.295.023-.456.212-.21.432-.412.647-.617l.66-.622c.25-.236.376-.24.64-.02.328.272.644.56 1.013.782.585.348 1.205.517 1.888.382.55-.11.852-.455.863-.98a.63.63 0 0 0-.212-.489c-.282-.27-.626-.432-.986-.558-.73-.254-1.459-.511-2.136-.886-.61-.338-1.162-.745-1.54-1.341-.992-1.56-.422-3.51 1.256-4.318a4 4 0 0 1 .989-.335c.134-.026.166-.08.162-.208-.01-.287-.004-.575 0-.864.002-.248.115-.358.365-.358h1.367c.275 0 .419.144.419.411 0 .266.006.53-.003.794-.004.112.028.155.143.178a5.17 5.17 0 0 1 2.524 1.277c.37.336.37.505.028.866-.36.378-.717.76-1.078 1.137-.212.223-.357.234-.596.04-.273-.222-.542-.451-.854-.623a2.1 2.1 0 0 0-1.587-.219 1.1 1.1 0 0 0-.363.162.665.665 0 0 0-.092 1.018c.19.195.432.312.684.403.557.202 1.12.386 1.678.59.624.229 1.232.486 1.764.893.709.543 1.085 1.254 1.134 2.145.092 1.674-.899 2.877-2.193 3.454a4.6 4.6 0 0 1-1.05.331c-.103.02-.146.053-.142.166.009.305.005.61.003.918 0 .265-.095.357-.357.357z"/><path fill="#181d27" d="M27.226 17.042a11.85 11.85 0 0 1-2.186 6.833 11.9 11.9 0 0 1-5.619 4.271c-2.248.813-4.935.947-7.337.272a12 12 0 0 1-5.945-3.864 11.76 11.76 0 0 1-2.676-6.587c-.183-2.4.393-4.925 1.672-7.031a12 12 0 0 1 5.288-4.67 12 12 0 0 1 7.269-.81 11.85 11.85 0 0 1 6.216 3.4 11.85 11.85 0 0 1 3.175 6.365c.096.603.137 1.212.14 1.82 0 .41.642.41.64 0-.009-2.57-.808-5.115-2.315-7.21a12.5 12.5 0 0 0-5.926-4.494c-2.38-.868-5.195-.991-7.71-.285a12.4 12.4 0 0 0-6.25 4.055 12.6 12.6 0 0 0-2.837 6.974 12.45 12.45 0 0 0 7.307 12.303 12.75 12.75 0 0 0 7.696.868 12.34 12.34 0 0 0 6.558-3.599c1.751-1.82 2.934-4.164 3.323-6.657q.152-.971.156-1.954c0-.41-.639-.41-.64 0z"/><path fill="#181d27" d="M14.838 4.586c-1.07 0-2.13-.013-3.194.144a12.5 12.5 0 0 0-4.181 1.413 12.6 12.6 0 0 0-5.634 6.433 12.42 12.42 0 0 0-.038 8.834 12.6 12.6 0 0 0 5.578 6.482 12.5 12.5 0 0 0 4.2 1.453c1.117.172 2.234.155 3.361.155h.395c.412 0 .412-.637 0-.637-.82 0-1.644.026-2.462-.019a11.8 11.8 0 0 1-4.164-.997 12.03 12.03 0 0 1-5.89-5.681c-1.225-2.512-1.507-5.619-.715-8.381a11.7 11.7 0 0 1 4.852-6.588 11.9 11.9 0 0 1 3.833-1.657c1.187-.28 2.377-.318 3.59-.318h.467c.412 0 .412-.636 0-.636z"/></g><defs><clipPath id="a"><path fill="#fff" d="M1 2.5h31v27H1z"/></clipPath></defs></svg>
